X:1
T:James Gibb editions
T:Every morning the red sun - Barnby
%%score [ ( 1 2 ) ( 3 4 ) ]
L:1/8
Q:1/4=180
M:3/2
K:G
V:1 treble nm="Midi_74"
V:2 treble 
V:3 bass nm="Midi_74"
V:4 bass 
V:1
"^Aurora (75. 75. 77)""^Every morning the red sun""^Joseph Barnby\n(1838-96)""^Cecil Frances Alexander\n(1818-95)"!f! D3 G | %1
 B6 A2 G3 B | d8 || B2 G2 | (D4 G4) F4 | G8 || G2 G2 | c6 c2 c2 c2 | B4 || B4 B4 | (F4 B4) ^A4 | %11
 B8 || B2 B2 | e6 d2 c2 B2 | c4 || B4 G4 | B6 D2 F3 A | G12 || G12 | G12 |] %20
V:2
 D3 D | G6 D2 D3 D | D8 || D2 D2 | B,8 C4 | B,8 || G2 G2 | G6 G2 G2 G2 | G4 || D4 E4- | F8 E4 | %11
 D8 || B2 B2 | E6 E2 E2 E2 | E4 || F4 E4 | G6 D2 D3 D | D12 || E12 | D12 |] %20
V:3
 B,3 B, | D6 C2 B,3 G, | B,8 || G,2 G,2 | G,8 A,4 | G,8 || G,2 G,2 | E6 E2 C2 C2 | D4 || %9
 B,4"^1 Every morning the red sun\nRises warm and bright;\nBut the evening cometh on,\nAnd the cold, dark night:\nThere’s a bright land far away\nWhere ‘tis never ending day.\n\n2 Every spring the sweet young flow’rs\nOpen fresh and gay,\nTill the chilly autumn hours\nWither them away!\nThere’s a land we have not seen,\nWhere the trees are always green." ^C4 | %10
 D8 ^C4 | B,8 || %12
"^cresc.""^5 Who shall go to that fair land?\nAll who love the right:\nHoly children there shall stand,\nIn their robes of white;\nIn that heav’n so bright and blest,\nIs our everlasting rest." B,2 B,2 | %13
 B,6 ^G,2 A,2 B,2 | %14
"^3 Little birds sing songs of praise\nAll the summer long.\nBut in colder, shorter days\nThey forget their song:\nTheres a place where angels sing\nCeaseless praises to their King.\n\n4 Christ our Lord is ever near\nThose who follow Him!\nBut we cannot see Him here,\nFor our eyes are dim:\nThere is a most happy place,\nWhere well always see His face." A,4 || %15
 F,4 B,4 | D6 B,2 C3 C | B,12 || C12 | B,12 |] %20
V:4
 G,3 G, | G,6 G,2 G,3 G, | (G,4 G,,4) || B,,2 B,,2 | D,8 D,4 | G,8 || G,2 G,2 | C,6 C,2 E,2 E,2 | %8
 G,4 || G,4 G,4 | F,8 F,4- | B,8 || B,2 B,2 | ^G,6 E,2 F,2 G,2 | A,4 || ^D,4 E,4 | D,6 D,2 D,3 D, | %17
 G,,12 || C,12 | G,,12 |] %20

